static/images/mobile/copyright/wikipedia-wordmark-pnt.svg

<svg width="120" height="18" viewBox="0 0 120 18" fill="none" xmlns="http://www.w3.org/2000/svg">
<path fill-rule="evenodd" clip-rule="evenodd" d="M107.905 17.1507C108.061 16.9937 108.061 16.448 107.905 16.292C106.928 16.2237 105.707 16.112 106.115 15.0445L107.543 11.2769C107.672 10.938 107.829 10.836 108.453 10.836H113.856L115.44 15.2274C115.779 16.1653 114.997 16.2082 113.967 16.2647C113.821 16.2727 113.671 16.2809 113.518 16.292C113.363 16.4489 113.363 16.9947 113.518 17.1507C114.479 17.1237 115.908 17.0977 116.922 17.0977C117.931 17.0977 118.826 17.122 119.737 17.1467L119.884 17.1507C120.039 16.9937 120.039 16.448 119.884 16.292C119.83 16.2872 119.777 16.2826 119.724 16.2781C118.786 16.1977 117.999 16.1304 117.544 14.8645L112.219 0.780666C112.029 0.278189 111.882 0 111.517 0C111.137 0 110.939 0.231021 110.643 0.927944L104.865 14.4477C104.181 16.0533 103.399 16.214 102.267 16.292C102.112 16.4489 102.112 16.9947 102.267 17.1507C102.55 17.1427 102.779 17.1349 102.987 17.1278C103.486 17.1107 103.864 17.0977 104.579 17.0977C105.645 17.0977 106.944 17.1247 107.905 17.1507ZM110.921 2.80694L113.44 9.7444H108.919C108.342 9.7444 108.155 9.67991 108.264 9.39884L110.867 2.80694H110.921ZM6.71655 0.286852C11.5498 0.286852 12.3025 2.54704 12.3025 4.28646C12.3025 5.69859 11.1358 7.0318 9.83441 7.69118V7.74316C12.0946 8.39292 13.8359 9.82141 13.8359 12.3165C13.8359 14.5497 12.4585 17.1497 7.28833 17.1497C5.92454 17.1497 5.23857 17.1313 4.67595 17.1162H4.67593H4.67591L4.67579 17.1162C4.28462 17.1057 3.95305 17.0967 3.49472 17.0967C2.45011 17.0967 1.74378 17.1129 0.867658 17.133C0.632876 17.1383 0.385901 17.144 0.116956 17.1497C-0.0389853 16.9938 -0.0389853 16.448 0.116956 16.2911C1.93627 16.2131 2.37811 16.0831 2.37811 13.9269V3.50771C2.37811 1.35149 1.93627 1.22154 0.116956 1.14357C-0.0389853 0.988587 -0.0389853 0.441831 0.116956 0.28589C0.460052 0.292497 0.765103 0.299239 1.05218 0.305584C1.85244 0.323271 2.51303 0.337871 3.46873 0.337871C4.05563 0.337871 4.67151 0.323777 5.25586 0.310404C5.78328 0.298334 6.28501 0.286852 6.71655 0.286852ZM4.58631 7.58818H6.50863C8.66485 7.58818 10.1983 6.80751 10.1983 4.60027C10.1983 1.94927 8.30099 1.17052 6.8465 1.17052C4.58631 1.17052 4.58631 1.43139 4.58631 2.2881V7.58818ZM4.58535 14.5497C4.58535 15.4083 4.92322 16.292 6.74158 16.292C10.6911 16.292 11.4189 14.7076 11.4189 12.8103C11.4189 10.4721 9.93741 8.47088 6.37771 8.47088H4.58535V14.5497ZM20.3229 16.5259C20.4404 16.6347 20.4404 17.0245 20.3229 17.1343C20.0892 17.1299 19.8789 17.1255 19.6809 17.1214L19.6791 17.1213L19.678 17.1213H19.6779H19.6778H19.6778H19.6778C19.052 17.1082 18.5478 17.0977 17.8086 17.0977C17.0698 17.0977 16.5574 17.1083 15.9512 17.1209C15.7415 17.1252 15.5205 17.1298 15.275 17.1343C15.1576 17.0245 15.1576 16.6347 15.275 16.5259C16.639 16.4691 16.9711 16.3787 16.9711 14.8472V7.4486C16.9711 5.91614 16.64 5.82372 15.275 5.76982C15.1576 5.65912 15.1576 5.27023 15.275 5.1605C15.4934 5.16481 15.6912 5.16908 15.8777 5.1731L15.8783 5.17311C16.5237 5.18703 17.0338 5.19803 17.7894 5.19803C18.5144 5.19803 19.0214 5.18729 19.613 5.17475L19.613 5.17475L19.6131 5.17475C19.8329 5.17009 20.0643 5.16519 20.3229 5.1605C20.4404 5.27023 20.4404 5.65912 20.3229 5.76982C18.9589 5.82565 18.6278 5.91614 18.6278 7.4486V14.8472C18.6287 16.3777 18.9589 16.471 20.3229 16.5259ZM26.9716 17.1343C27.0881 17.0245 27.0881 16.6347 26.9716 16.5259C25.6066 16.471 25.2745 16.3777 25.2764 14.8462V11.3981C25.932 11.4164 26.446 11.6234 26.8359 12.0989L30.0134 15.7501C30.4013 16.1977 30.4033 16.6867 30.4033 17.0236C30.4033 17.0765 30.4225 17.1333 30.5005 17.1333C30.5667 17.1306 30.6312 17.1277 30.6956 17.1248C31.0104 17.1107 31.3216 17.0967 31.8067 17.0967C32.3179 17.0967 32.6173 17.1046 33.0369 17.1156H33.037H33.037C33.2417 17.1209 33.4749 17.127 33.7753 17.1333C33.8927 17.0236 33.8927 16.6347 33.7753 16.525C33.7299 16.5187 33.6784 16.5139 33.6217 16.5087C33.2421 16.4735 32.6295 16.4167 32.0599 15.7491L27.7908 10.9534C27.6156 10.7686 27.5569 10.6387 27.5569 10.4923C27.5569 10.3643 27.6406 10.2401 28.2778 9.58942L31.0068 6.80173C31.8412 5.96194 32.6423 5.87151 33.3781 5.78845L33.3783 5.78842L33.379 5.78834C33.4331 5.78223 33.4869 5.77615 33.5404 5.76982C33.6569 5.65912 33.6569 5.27023 33.5404 5.1605C33.1757 5.16739 32.9314 5.17474 32.7203 5.1811C32.4011 5.19071 32.1577 5.19803 31.6883 5.19803C31.1109 5.19803 30.6834 5.188 30.1282 5.17498C29.9338 5.17042 29.7236 5.16549 29.4859 5.1605C29.3685 5.27023 29.3685 5.65912 29.4859 5.76982C29.5667 5.77689 29.6485 5.78201 29.7286 5.78702L29.7286 5.78702L29.7286 5.78702L29.7287 5.78703L29.7287 5.78703L29.7288 5.78703L29.7288 5.78703L29.7288 5.78704L29.7289 5.78704C30.3461 5.82565 30.8615 5.85789 30.0317 6.72857L26.7569 9.97542C26.3651 10.3624 25.957 10.6329 25.2755 10.6887V7.4486C25.2755 5.91614 25.6076 5.82565 26.9716 5.76982C27.0881 5.65912 27.0881 5.27023 26.9716 5.1605C26.713 5.16519 26.4815 5.17009 26.2618 5.17475L26.2617 5.17475L26.2617 5.17475C25.67 5.18729 25.163 5.19803 24.438 5.19803C23.6832 5.19803 23.174 5.18705 22.5292 5.17315H22.5292H22.5292C22.3419 5.16911 22.1432 5.16483 21.9237 5.1605C21.8063 5.27023 21.8063 5.65912 21.9237 5.76982C23.2887 5.82372 23.6198 5.91614 23.6198 7.4486V14.8472C23.6198 16.3787 23.2877 16.4691 21.9237 16.5259C21.8063 16.6347 21.8063 17.0245 21.9237 17.1343C22.1692 17.1298 22.3901 17.1252 22.5999 17.1209C23.2061 17.1083 23.7185 17.0977 24.4573 17.0977C25.1959 17.0977 25.6993 17.1082 26.3245 17.1213L26.3252 17.1213L26.3265 17.1213L26.3287 17.1214L26.3321 17.1214L26.3377 17.1216C26.5333 17.1256 26.741 17.13 26.9716 17.1343ZM40.4971 16.5259C40.6146 16.6347 40.6146 17.0245 40.4971 17.1343C40.2622 17.1299 40.0511 17.1255 39.8522 17.1213H39.8521H39.8521H39.852C39.2262 17.1082 38.722 17.0977 37.9828 17.0977C37.244 17.0977 36.7316 17.1083 36.1254 17.1209C35.9157 17.1252 35.6947 17.1298 35.4492 17.1343C35.3318 17.0245 35.3318 16.6347 35.4492 16.5259C36.8132 16.4691 37.1453 16.3787 37.1453 14.8472V7.4486C37.1453 5.91614 36.8142 5.82372 35.4492 5.76982C35.3318 5.65912 35.3318 5.27023 35.4492 5.1605C35.6672 5.1648 35.8647 5.16906 36.0509 5.17308L36.0518 5.1731L36.0525 5.17311C36.6979 5.18703 37.2079 5.19803 37.9636 5.19803C38.6886 5.19803 39.1956 5.18729 39.7872 5.17475L39.7872 5.17475L39.7873 5.17475L39.7873 5.17475C40.0071 5.17009 40.2385 5.16519 40.4971 5.1605C40.6146 5.27023 40.6146 5.65912 40.4971 5.76982C39.1331 5.82565 38.802 5.91614 38.802 7.4486V14.8472C38.8029 16.3777 39.1331 16.471 40.4971 16.5259ZM53.2824 5.76983C53.3921 5.6601 53.3921 5.27121 53.2824 5.16244L53.2152 5.16371C52.3264 5.18065 51.4134 5.19805 50.9336 5.19805H44.1088C43.69 5.19805 42.6706 5.18072 41.761 5.16244C41.6522 5.27121 41.6522 5.6601 41.761 5.76983C43.0355 5.8247 43.3445 5.91711 43.3445 7.44861V14.8481C43.3445 16.3796 43.0355 16.4711 41.761 16.5269C41.6522 16.6366 41.6522 17.0255 41.761 17.1353C42.0163 17.1306 42.2432 17.1256 42.4588 17.1208L42.4594 17.1208C42.9972 17.109 43.4648 17.0987 44.1271 17.0987C44.8495 17.0987 45.3316 17.1096 45.9551 17.1238H45.9551L45.9554 17.1238L45.9558 17.1238L45.9572 17.1238L45.9606 17.1239C46.1206 17.1275 46.2898 17.1314 46.4748 17.1353C46.5836 17.0255 46.5836 16.6366 46.4748 16.5269C45.2004 16.472 44.8914 16.3796 44.8914 14.8481V7.3023C44.8914 6.15776 45.2918 5.93733 45.7288 5.93733H49.3145C49.7515 5.93733 50.152 6.15873 50.152 7.3023V14.8481C50.152 16.3796 49.843 16.4711 48.5685 16.5269C48.4597 16.6366 48.4597 17.0255 48.5685 17.1353C48.8412 17.1304 49.0797 17.1251 49.3045 17.1202C49.8293 17.1086 50.2794 17.0987 50.9163 17.0987C51.672 17.0987 52.1741 17.1102 52.8151 17.1248C52.962 17.1282 53.1162 17.1317 53.2824 17.1353C53.3921 17.0255 53.3921 16.6366 53.2824 16.5269C52.0079 16.472 51.6989 16.3796 51.6989 14.8481V7.44861C51.6989 5.91711 52.0088 5.82663 53.2824 5.76983ZM57.7729 16.5259C57.8894 16.6347 57.8894 17.0246 57.7729 17.1343C57.0509 17.116 56.0768 17.0977 55.2778 17.0977C54.7614 17.0977 54.4789 17.1066 54.1249 17.1177C53.9577 17.123 53.7745 17.1287 53.5432 17.1343C53.4258 17.0246 53.4258 16.6347 53.5432 16.5259C54.3913 16.4691 54.9775 16.3546 55.4925 15.2158L59.8252 5.61678C60.0475 5.12104 60.1958 4.95739 60.4826 4.95739C60.755 4.95739 60.8657 5.15473 61.0082 5.51089L65.004 15.5104C65.3433 16.4075 65.9313 16.4567 66.6344 16.5154L66.6358 16.5156C66.6761 16.5189 66.7168 16.5223 66.7578 16.5259C66.8733 16.6347 66.8733 17.0246 66.7578 17.1343L66.7059 17.133C66.0021 17.1151 65.3149 17.0977 64.5342 17.0977C63.7738 17.0977 62.7024 17.117 61.9823 17.1343C61.8659 17.0246 61.8659 16.6347 61.9823 16.5259C62.0954 16.5183 62.2067 16.5126 62.3144 16.507C63.0894 16.4673 63.6786 16.437 63.4234 15.7693L62.2346 12.6515H58.182C57.7142 12.6515 57.5977 12.7256 57.5005 12.9653L56.4281 15.6403C56.123 16.3979 57.0384 16.4768 57.7729 16.5259ZM61.9236 11.8766L60.0331 6.95094H59.9936L58.0405 11.6301C57.9587 11.8294 58.0992 11.8766 58.5314 11.8766H61.9236ZM71.9819 17.1343C72.0983 17.0245 72.0983 16.6347 71.9819 16.5259C70.6169 16.471 70.2867 16.3777 70.2858 14.8472V7.4486C70.2858 5.91614 70.6169 5.82565 71.9819 5.76982C72.0983 5.65912 72.0983 5.27023 71.9819 5.1605C71.7244 5.16517 71.4938 5.17005 71.2747 5.17469L71.2737 5.17471L71.2731 5.17472L71.2726 5.17473C70.6801 5.18728 70.1721 5.19803 69.4473 5.19803C68.6928 5.19803 68.1837 5.18706 67.539 5.17317C67.3513 5.16913 67.1521 5.16484 66.9321 5.1605C66.8165 5.27023 66.8165 5.65912 66.9321 5.76982C68.298 5.82372 68.6291 5.91614 68.6291 7.4486V14.8472C68.6291 16.3787 68.298 16.4691 66.9321 16.5259C66.8165 16.6347 66.8165 17.0245 66.9321 17.1343C67.1769 17.1298 67.3976 17.1253 67.6071 17.1209C68.2145 17.1084 68.7282 17.0977 69.4675 17.0977C70.2049 17.0977 70.708 17.1082 71.3331 17.1213C71.533 17.1254 71.7454 17.1299 71.9819 17.1343ZM84.229 16.729C84.2877 16.8946 84.307 16.9495 84.307 16.987C84.307 17.0611 84.229 17.0977 83.8979 17.0977H73.6067C73.3526 17.0977 73.1967 17.0785 73.1967 16.9687C73.1967 16.9363 73.2035 16.9227 73.2246 16.8808C73.2397 16.8507 73.2622 16.806 73.2948 16.729L78.2647 4.95739H79.4747L84.229 16.729ZM74.5029 16.4711H82.3577L78.4977 6.82291H78.4592L74.5029 16.4711ZM92.748 9.18224C92.6316 9.07251 92.2215 9.07251 92.105 9.18224C92.0453 10.1978 91.9876 10.4375 90.3281 10.4356H88.554V6.7459C88.554 6.30311 88.7898 5.93444 89.2557 5.93444H91.3032C92.7644 5.93444 93.0763 6.67275 93.5047 7.94531C93.7472 7.97803 93.958 7.93857 94.1496 7.85193C94.0524 7.09629 93.7588 5.32511 93.7193 5.17783C93.7193 5.14125 93.702 5.122 93.6423 5.122C93.3112 5.1759 93.1552 5.19515 92.6884 5.19515H87.7175C87.7175 5.19515 86.1793 5.17783 85.2041 5.15954C85.0867 5.26832 85.0867 5.6572 85.2041 5.76694C86.5681 5.82181 86.8993 5.91422 86.8993 7.44572V14.8452C86.8993 16.3767 86.5681 16.4682 85.2041 16.523C85.0867 16.6337 85.0867 17.0226 85.2041 17.1324C86.159 17.116 87.7377 17.0958 87.7377 17.0958H91.9289C92.8645 17.0958 94.4239 17.1324 94.4239 17.1324C94.6964 16.2102 94.989 14.9935 95.1449 14.052C94.9418 13.9394 94.7185 13.8999 94.4624 13.9596C94.0736 15.288 93.3911 16.3767 91.9096 16.3767H89.2586C88.8293 16.3767 88.5569 16.0822 88.5569 15.5835V11.1373H90.331C91.9886 11.1373 92.0453 11.5628 92.105 12.3935C92.2215 12.5023 92.6316 12.5023 92.748 12.3935C92.7428 12.217 92.7375 12.0626 92.7325 11.9185C92.7193 11.5345 92.7086 11.2243 92.7086 10.7686C92.7086 10.232 92.7226 9.85862 92.7394 9.41506L92.748 9.18224ZM101.129 16.5259C101.247 16.6347 101.247 17.0245 101.129 17.1343C100.894 17.1299 100.683 17.1255 100.484 17.1213C99.8584 17.1082 99.3544 17.0977 98.6161 17.0977C97.8776 17.0977 97.3641 17.1083 96.7569 17.1209C96.5473 17.1253 96.3266 17.1298 96.0815 17.1343C95.9651 17.0245 95.9651 16.6347 96.0815 16.5259C97.4465 16.4691 97.7786 16.3787 97.7786 14.8472V7.4486C97.7786 5.91614 97.4465 5.82372 96.0815 5.76982C95.9651 5.65912 95.9651 5.27023 96.0815 5.1605C96.3017 5.16484 96.501 5.16913 96.6888 5.17318C97.3333 5.18707 97.8422 5.19803 98.5958 5.19803C99.3203 5.19803 99.8277 5.18728 100.42 5.17475C100.639 5.17009 100.871 5.16519 101.129 5.1605C101.247 5.27023 101.247 5.65912 101.129 5.76982C99.7664 5.82565 99.4333 5.91614 99.4333 7.4486V14.8472C99.4333 16.3777 99.7664 16.471 101.129 16.5259Z" fill="black"/>
</svg>

<svg xmlns="http://www.w3.org/2000/svg" width="120" height="18" fill="none"><path fill="#000" fill-rule="evenodd" d="M107.905 17.15c.156-.156.156-.702 0-.858-.977-.068-2.198-.18-1.79-1.248l1.428-3.767c.129-.339.286-.441.91-.441h5.403l1.584 4.391c.339.938-.443.981-1.473 1.038-.146.008-.296.016-.449.027-.155.157-.155.703 0 .859.961-.027 2.39-.053 3.404-.053 1.009 0 1.904.024 2.815.049l.147.004c.155-.157.155-.703 0-.859l-.16-.014c-.938-.08-1.725-.148-2.18-1.413L112.219.78c-.19-.503-.337-.781-.702-.781-.38 0-.578.231-.874.928l-5.778 13.52c-.684 1.605-1.466 1.766-2.598 1.844-.155.157-.155.703 0 .859.283-.008.512-.016.72-.023.499-.017.877-.03 1.592-.03 1.066 0 2.365.027 3.326.053Zm3.016-14.343 2.519 6.937h-4.521c-.577 0-.764-.064-.655-.345l2.603-6.592h.054ZM6.717.287c4.833 0 5.586 2.26 5.586 4 0 1.412-1.167 2.745-2.469 3.404v.052c2.26.65 4.002 2.078 4.002 4.573 0 2.234-1.377 4.834-6.548 4.834a84.94 84.94 0 0 1-2.612-.034c-.391-.01-.723-.02-1.181-.02-1.045 0-1.751.017-2.627.037l-.751.017c-.156-.156-.156-.702 0-.859 1.82-.078 2.261-.208 2.261-2.364V3.507c0-2.156-.442-2.285-2.261-2.363-.156-.155-.156-.702 0-.858.343.006.648.013.935.02.8.017 1.461.032 2.417.032.587 0 1.203-.014 1.787-.028.527-.012 1.029-.023 1.46-.023Zm-2.13 7.301h1.922c2.156 0 3.69-.78 3.69-2.988 0-2.65-1.898-3.43-3.353-3.43-2.26 0-2.26.261-2.26 1.118v5.3Zm-.002 6.962c0 .858.338 1.742 2.157 1.742 3.95 0 4.677-1.584 4.677-3.482 0-2.338-1.482-4.34-5.041-4.34H4.585v6.08Zm15.738 1.976c.117.109.117.498 0 .608l-.642-.013h-.003a80 80 0 0 0-1.87-.023c-.738 0-1.25.01-1.857.023l-.676.013c-.117-.11-.117-.5 0-.608 1.364-.057 1.696-.147 1.696-1.679V7.45c0-1.533-.331-1.625-1.696-1.68-.117-.11-.117-.499 0-.609.218.005.416.01.603.013.646.014 1.156.025 1.911.025.725 0 1.232-.01 1.824-.023.22-.005.451-.01.71-.014.117.11.117.498 0 .609-1.364.056-1.695.146-1.695 1.679v7.398c0 1.53.33 1.624 1.695 1.679Zm6.649.608c.116-.11.116-.5 0-.608-1.365-.055-1.698-.148-1.696-1.68v-3.448c.656.018 1.17.225 1.56.7l3.177 3.652c.388.448.39.937.39 1.274 0 .052.02.11.098.11l.195-.01c.314-.013.626-.027 1.11-.027.512 0 .811.008 1.23.019h.001l.738.017c.118-.11.118-.498 0-.608a3.469 3.469 0 0 0-.153-.016c-.38-.035-.992-.092-1.562-.76l-4.27-4.796c-.174-.184-.233-.314-.233-.46 0-.129.084-.253.72-.904l2.73-2.787c.834-.84 1.635-.93 2.371-1.014h.001l.161-.018c.117-.11.117-.5 0-.61-.364.007-.609.015-.82.021-.319.01-.562.017-1.032.017-.577 0-1.005-.01-1.56-.023-.194-.005-.404-.01-.642-.014-.117.11-.117.498 0 .609.08.007.162.012.243.017.617.039 1.133.07.303.942l-3.275 3.246c-.392.387-.8.658-1.482.714v-3.24c0-1.533.333-1.623 1.697-1.68.116-.11.116-.499 0-.609l-.71.015c-.592.012-1.099.023-1.824.023-.755 0-1.264-.011-1.909-.025l-.605-.013c-.118.11-.118.5 0 .61 1.365.054 1.696.146 1.696 1.679v7.398c0 1.532-.332 1.622-1.696 1.679-.118.109-.118.498 0 .608l.676-.013a80.456 80.456 0 0 1 1.857-.023c.739 0 1.242.01 1.867.023h.014c.195.005.403.009.634.013Zm13.525-.608c.118.109.118.498 0 .608l-.645-.013a80 80 0 0 0-1.87-.023c-.738 0-1.25.01-1.857.023l-.676.013c-.117-.11-.117-.5 0-.608 1.364-.057 1.696-.147 1.696-1.679V7.45c0-1.533-.33-1.625-1.696-1.68-.117-.11-.117-.499 0-.609.218.005.416.01.602.013h.002c.645.014 1.155.025 1.91.025.726 0 1.233-.01 1.824-.023.22-.005.452-.01.71-.014.118.11.118.498 0 .609-1.364.056-1.695.146-1.695 1.679v7.398c0 1.53.331 1.624 1.695 1.679ZM53.282 5.77c.11-.11.11-.499 0-.608l-.067.002c-.889.017-1.802.034-2.281.034h-6.825c-.419 0-1.438-.017-2.348-.036-.109.11-.109.498 0 .608 1.274.055 1.583.147 1.583 1.679v7.4c0 1.53-.309 1.622-1.583 1.678-.109.11-.109.498 0 .608.255-.004.482-.01.698-.014.538-.012 1.006-.022 1.668-.022.722 0 1.205.01 1.828.025h.006l.514.011c.109-.11.109-.498 0-.608-1.275-.055-1.584-.147-1.584-1.679V7.302c0-1.144.4-1.365.838-1.365h3.586c.437 0 .837.222.837 1.365v7.546c0 1.532-.309 1.623-1.584 1.679-.108.11-.108.498 0 .608l.736-.015c.525-.011.975-.021 1.612-.021.756 0 1.258.011 1.9.026l.466.01c.11-.11.11-.498 0-.608-1.274-.055-1.583-.147-1.583-1.679v-7.4c0-1.53.31-1.621 1.583-1.678Zm4.49 10.756c.117.109.117.499 0 .608-.721-.018-1.695-.036-2.494-.036-.517 0-.8.009-1.153.02l-.582.016c-.117-.11-.117-.5 0-.608.848-.057 1.434-.171 1.95-1.31l4.332-9.6c.222-.495.37-.659.658-.659.272 0 .383.198.525.554l3.996 10c.34.896.927.946 1.63 1.004h.002l.122.01c.115.11.115.5 0 .61l-.052-.002a82.072 82.072 0 0 0-2.172-.035c-.76 0-1.832.019-2.552.036-.116-.11-.116-.5 0-.608.113-.008.225-.013.332-.019.775-.04 1.365-.07 1.11-.738l-1.19-3.117h-4.052c-.468 0-.584.074-.681.313l-1.073 2.675c-.305.758.61.837 1.345.886Zm4.152-4.65-1.89-4.925h-.04l-1.953 4.68c-.082.198.058.246.49.246h3.393Zm10.058 5.258c.116-.11.116-.5 0-.608-1.365-.055-1.695-.148-1.696-1.679V7.45c0-1.533.33-1.623 1.696-1.68.116-.11.116-.499 0-.609l-.707.015h-.002c-.593.012-1.1.023-1.826.023-.754 0-1.263-.01-1.908-.025l-.607-.013c-.115.11-.115.5 0 .61 1.366.054 1.697.146 1.697 1.679v7.398c0 1.532-.331 1.622-1.697 1.679-.115.109-.115.498 0 .608l.675-.013c.608-.013 1.121-.023 1.86-.023.738 0 1.241.01 1.866.023l.649.013Zm12.247-.405c.059.166.078.22.078.258 0 .074-.078.11-.41.11h-10.29c-.254 0-.41-.019-.41-.128 0-.033.007-.046.028-.088.015-.03.037-.075.07-.152l4.97-11.772h1.21l4.754 11.772Zm-9.726-.258h7.855l-3.86-9.648h-.039l-3.956 9.648Zm18.245-7.289c-.116-.11-.526-.11-.643 0-.06 1.016-.117 1.255-1.777 1.254h-1.774v-3.69c0-.443.236-.812.702-.812h2.047c1.461 0 1.773.739 2.202 2.011a1.15 1.15 0 0 0 .645-.093c-.098-.756-.391-2.527-.43-2.674 0-.037-.018-.056-.078-.056a4.72 4.72 0 0 1-.954.073h-4.97s-1.539-.017-2.514-.035c-.117.108-.117.497 0 .607 1.364.055 1.695.147 1.695 1.679v7.4c0 1.53-.33 1.622-1.695 1.677-.117.11-.117.5 0 .61.955-.017 2.534-.037 2.534-.037h4.19c.937 0 2.496.036 2.496.036.272-.922.565-2.139.72-3.08a.922.922 0 0 0-.682-.092c-.388 1.328-1.07 2.417-2.552 2.417h-2.651c-.43 0-.702-.295-.702-.793v-4.447h1.774c1.658 0 1.714.426 1.774 1.256.117.11.527.11.643 0-.005-.176-.01-.33-.016-.475-.013-.383-.023-.694-.023-1.15 0-.536.014-.91.03-1.353l.009-.233Zm8.381 7.344c.118.109.118.498 0 .608a263.55 263.55 0 0 1-.645-.013 79.934 79.934 0 0 0-1.868-.023c-.738 0-1.252.01-1.86.023l-.674.013c-.117-.11-.117-.5 0-.608 1.365-.057 1.697-.147 1.697-1.679V7.45c0-1.533-.332-1.625-1.697-1.68-.117-.11-.117-.499 0-.609.22.005.419.01.607.013.644.014 1.153.025 1.907.025.724 0 1.232-.01 1.824-.023.219-.005.451-.01.709-.014.118.11.118.498 0 .609-1.363.056-1.696.146-1.696 1.679v7.398c0 1.53.333 1.624 1.696 1.679Z" clip-rule="evenodd"/></svg>
